X: 10801
T: CHAMBERS'S HORNPIPE
C: R. Stephenson
R: hornpipe
B: K\"ohler's Violin Repository, v.1, 1885 p.80 #1
F: http://www.archive.org/details/klersviolinrepos01edin
Z: 2012 John Chambers <jc:trillian.mit.edu>
M: C|
L: 1/8
K: A
u(cd) |\
e2{f}e^d (ea)gf | (3efe (3dcB AGFE | AGBA cBdc | fedc [B2G2](cd) |\
e2{f}e^d (ea)gf | edcB AGFE | AGBA FdBG | A2A2A2 :|
|: u(BA) |\
(GA)Bc (de)fg | (ag)ba (gf)ed | cd^de fe=dc | d2B2 B2(BA) |\
(GA)Bc (de)fg | (ag)ba (gf)ed cedf edcB A2{g}a2A2 :|

%%sep 2 1 500

